dist/svg/static/climate-large.svg

<svg xmlns="http://www.w3.org/2000/svg" width="48" height="48" viewBox="0 0 48 48"><g fill="none" stroke="currentColor" stroke-miterlimit="10"><path d="M29.464 27.451s6.358-.854 10.25 1.571c3.58 2.232 3.57 5.027 3.553 5.714-.017.687-.078 2.01-1.268 4.008-1.19 1.998-2.055 2.909-2.773 3.56-.718.651-2.351 1.698-3.955 1.448-2.327-.363-3.896-2.82-4.458-4.55-.29-.891-.855-2.854-1.068-5.062-.205-2.121-.285-5.172-.285-5.598 0-.427.004-1.09.004-1.09zM20.598 29.463s-.247 6.553-2.57 10.317c-1.842 2.986-4.641 3.123-5.461 3.145-.82.022-2.421-.033-4.414-1.232-1.993-1.199-2.593-1.886-3.24-2.607s-1.648-2.459-1.39-4.062c.373-2.325 2.743-3.509 4.51-4.188.874-.336 2.395-.749 4.78-1.072 2.187-.296 5.46-.353 5.886-.351.427.002 1.9.05 1.9.05zM27.472 18.374s3.105.138 6.387-.198c3.281-.335 5.21-.82 6.613-1.39 1.353-.55 1.814-.842 2.256-1.168.524-.387 1.063-.875 1.422-1.545.24-.447.53-1.07.483-2.077s-.753-2.49-1.594-3.425c-.759-.842-2.485-2.204-4.161-2.948-1.643-.729-3.87-.937-5.32-.386-1.562.595-3.224 2.404-3.827 3.49-.437.785-1.318 3.217-1.725 5.468s-.534 4.179-.534 4.179zM18.5 20.426s.02-2.15-.056-4.014c-.076-1.865-.345-4.748-.888-6.545-.545-1.802-1.5-3.821-2.679-4.767-1.189-.955-2.849-1.417-4.675-.504s-3.494 3.16-4.29 4.606c-.796 1.446-1.46 3.355-1.01 5.364.466 2.08 2.503 4.155 5.023 5.025 2.122.732 3.826.89 5.17.968 1.272.074 3.405-.133 3.405-.133zM18 23.89c0 3.4 2.6 6 6 6s6-2.6 6-6-2.6-6-6-6-6 2.6-6 6z"/></g></svg>

<?xml version="1.0" encoding="UTF-8" standalone="no"?>
<svg width="48px" height="48px" viewBox="0 0 48 48" version="1.1" xmlns="http://www.w3.org/2000/svg" xmlns:xlink="http://www.w3.org/1999/xlink">
    <!-- Generator: sketchtool 46.2 (44496) - http://www.bohemiancoding.com/sketch -->
    <title>climate-large</title>
    <desc>Created with sketchtool.</desc>
    <defs></defs>
    <g id="icons-published" stroke="none" stroke-width="1" fill="none" fill-rule="evenodd">
        <g id="briefing" transform="translate(-3456.000000, -282.000000)"></g>
        <g id="climate-large" stroke="#000000">
            <path d="M29.5,27.5 C29.5,27.5 35.9,26.6 39.7,29.1 C43.3,31.3 43.3,34.1 43.3,34.8 C43.3,35.5 43.2,36.8 42,38.8 C40.8,40.8 39.9,41.7 39.2,42.4 C38.5,43.1 36.8,44.1 35.2,43.8 C32.9,43.4 31.3,41 30.7,39.3 C30.4,38.4 29.8,36.4 29.6,34.2 C29.4,32.1 29.3,29 29.3,28.6 C29.5,28.1 29.5,27.5 29.5,27.5 L29.5,27.5 Z M20.6,29.5 C20.6,29.5 20.4,36.1 18,39.8 C16.2,42.8 13.4,42.9 12.5,42.9 C11.7,42.9 10.1,42.9 8.1,41.7 C6.1,40.5 5.5,39.8 4.9,39.1 C4.3,38.4 3.3,36.6 3.5,35 C3.9,32.7 6.2,31.5 8,30.8 C8.9,30.5 10.4,30.1 12.8,29.7 C15,29.4 18.3,29.3 18.7,29.3 C19.1,29.4 20.6,29.5 20.6,29.5 L20.6,29.5 Z M27.5,18.4 C27.5,18.4 30.6,18.5 33.9,18.2 C37.2,17.9 39.1,17.4 40.5,16.8 C41.9,16.3 42.3,16 42.8,15.6 C43.3,15.2 43.9,14.7 44.2,14.1 C44.4,13.7 44.7,13 44.7,12 C44.7,11 43.9,9.5 43,8.6 C42.2,7.8 40.5,6.4 38.8,5.7 C37.2,5 34.9,4.8 33.5,5.3 C31.9,5.9 30.3,7.7 29.7,8.8 C29.3,9.6 28.4,12 28,14.3 C27.6,16.6 27.5,18.4 27.5,18.4 Z M18.5,20.4 C18.5,20.4 18.5,18.3 18.4,16.4 C18.3,14.5 18.1,11.7 17.5,9.9 C17,8.1 16.1,6 14.9,5.1 C13.7,4.1 12.1,3.7 10.2,4.6 C8.3,5.5 6.7,7.8 5.9,9.2 C5.1,10.6 4.4,12.6 4.9,14.6 C5.4,16.7 7.4,18.8 9.9,19.6 C12,20.3 13.7,20.5 15.1,20.6 C16.4,20.6 18.5,20.4 18.5,20.4 Z M18,23.9 C18,27.3 20.6,29.9 24,29.9 C27.4,29.9 30,27.3 30,23.9 C30,20.5 27.4,17.9 24,17.9 C20.6,17.9 18,20.5 18,23.9 Z" id="Shape"></path>
        </g>
    </g>
</svg>
